assets/img/icon-twitter.svg

<?xml version="1.0" encoding="UTF-8"?>
<svg width="22px" height="18px" viewBox="0 0 22 18" version="1.1" xmlns="http://www.w3.org/2000/svg" xmlns:xlink="http://www.w3.org/1999/xlink">
    <!-- Generator: Sketch 47.1 (45422) - http://www.bohemiancoding.com/sketch -->
    <title>icon-twitter</title>
    <desc>Created with Sketch.</desc>
    <defs>
        <path d="M21.1934341,0.800600191 C20.3364286,1.28612132 19.3894547,1.6392276 18.3773116,1.82816099 C17.5710574,1.00460519 16.4187713,0.490017384 15.1430673,0.490017384 C12.6977755,0.490017384 10.7132829,2.38904016 10.7132829,4.73106061 C10.7132829,5.06317428 10.7513464,5.38613734 10.8274734,5.69672015 C7.14454109,5.51962874 3.87973061,3.8332233 1.69280933,1.26405218 C1.31102086,1.8927536 1.0930208,2.62211184 1.0930208,3.39829972 C1.0930208,4.86939645 1.87505277,6.16770794 3.06482561,6.92828594 C2.33931217,6.90783162 1.65474583,6.71513032 1.05611073,6.3991648 L1.05611073,6.45137716 C1.05611073,8.50703702 2.58384134,10.2219709 4.61274141,10.6100648 C4.24133389,10.7096451 3.84916446,10.7591661 3.44488392,10.7591661 C3.15940765,10.7591661 2.88085201,10.7338673 2.61094717,10.6843463 C3.17497908,12.3685987 4.81055628,13.59532 6.75006479,13.6276163 C5.23386857,14.7660611 3.32204262,15.4442835 1.24642825,15.4442835 C0.888862006,15.4442835 0.535332801,15.4249057 0.189300953,15.3861502 C2.15014809,16.5875727 4.48067259,17.2900174 6.98248284,17.2900174 C15.1344165,17.2900174 19.5907299,10.8286031 19.5907299,5.22357927 C19.5907299,5.03895205 19.5872696,4.85486311 19.5797723,4.6740038 C20.4454286,4.0754456 21.1974711,3.32940093 21.7891856,2.47893155 C20.9956192,2.81588967 20.1409206,3.0441169 19.2446981,3.14638854 C20.1599523,2.62211184 20.862397,1.79048196 21.1934341,0.800600191" id="path-1"></path>
    </defs>
    <g id="Page-1" stroke="none" stroke-width="1" fill="none" fill-rule="evenodd">
        <g id="design" transform="translate(-1179.000000, -1959.000000)">
            <g id="Web-Components/Footer" transform="translate(0.000000, 1629.000000)">
                <g id="Group-2" transform="translate(0.000000, 1.000000)">
                    <g id="Group-5" transform="translate(1141.000000, 325.000000)">
                        <g id="icon-twitter" transform="translate(38.000000, 4.000000)">
                            <mask id="mask-2" fill="white">
                                <use xlink:href="#path-1"></use>
                            </mask>
                            <use id="Twitter" fill="#9A9A9A" xlink:href="#path-1"></use>
                        </g>
                    </g>
                </g>
            </g>
        </g>
    </g>
</svg>

<svg width="22" height="18" viewBox="0 0 22 18" xmlns="http://www.w3.org/2000/svg" xmlns:xlink="http://www.w3.org/1999/xlink"><title>icon-twitter</title><defs><path d="M21.193.8c-.857.486-1.804.84-2.816 1.028C17.57 1.005 16.42.49 15.143.49c-2.445 0-4.43 1.9-4.43 4.24 0 .333.038.656.114.967C7.145 5.52 3.88 3.833 1.693 1.264c-.382.63-.6 1.358-.6 2.134 0 1.47.782 2.77 1.972 3.53-.726-.02-1.41-.213-2.01-.53v.053c0 2.057 1.53 3.772 3.558 4.16-.372.1-.764.15-1.168.15-.286 0-.564-.026-.834-.076.565 1.685 2.2 2.91 4.14 2.944-1.516 1.138-3.428 1.816-5.504 1.816-.357 0-.71-.02-1.057-.058 1.96 1.202 4.29 1.904 6.792 1.904 8.152 0 12.61-6.46 12.61-12.066 0-.185-.005-.37-.012-.55.865-.6 1.617-1.345 2.21-2.195-.794.336-1.65.564-2.545.666.915-.524 1.617-1.356 1.948-2.345" id="a"/></defs><use fill="#9A9A9A" xlink:href="#a" fill-rule="evenodd"/></svg>
